X: 27395
T: Mockingbird Hill
R: waltz
M: 3/4
K: Gmajor
DC|:"G"B,2D2G2|B2G2D2|"C"C2E2A2|c4FE|
"D"D2F2A2|c2d2c2|"G"B2G2E2|"D"D4DC|
"G"B,2D2G2|B2G2D2|"C"C2E2A2|c4FE|
"D"D2F2A2|c2d2c2|"G"B2G2G2|G4Bc:|
|:"G"d2d2dd|e2d2BA|"C"G2C2E2|"G"D4AB|
"D"c2B2AG|F2G2A2|"G"B2G2E2|D4Bc|
d2d2dd|e2d2BA|"C"G2C2E2|"G"D4AB|
"D"c2B2AG|F2G2A2|"G"B2G2G2|G4Bc:|

